assets/images/payments/unionpay.svg

<svg width="100" height="60" viewBox="0 0 100 60" version="1.1" xmlns="http://www.w3.org/2000/svg" xmlns:xlink="http://www.w3.org/1999/xlink"><title>UnionPay-light</title><desc>Created with Sketch.</desc><g id="Light-Payment-badges" stroke="none" stroke-width="1" fill="none" fill-rule="evenodd" transform="translate(-450.000000, -264.000000)"><g id="UnionPay-light" transform="translate(450.000000, 264.000000)"><rect id="Rectangle" fill="#FFF" x="0" y="0" width="100" height="60" rx="4"/><path d="M80.6120613,8.11057663 L63.8957777,8.10623383 L63.8914696,8.10623383 C63.8785487,8.10623383 63.8659117,8.10855194 63.8532782,8.10855194 C61.5568433,8.1794716 58.6967052,10.0361563 58.1757928,12.3256027 L50.2705079,47.5863072 C49.7495953,49.8971319 51.1667399,51.777467 53.4465207,51.8120681 L71.0076367,51.8120681 C73.2526685,51.7001233 75.4342387,49.8647923 75.9462511,47.6013603 L83.8518269,12.3403661 C84.3810646,10.0060496 82.9297462,8.11057663 80.6120613,8.11057663" id="path22" fill="#01798A"/><path d="M50.2705079,47.5863072 L58.1757962,12.3256027 C58.6967088,10.036156 61.5568433,8.17947137 63.8532782,8.10855194 L57.2069113,8.10420914 L45.2322473,8.10189103 C42.929408,8.14936518 40.0320006,10.0190783 39.5112879,12.3256027 L31.6036738,47.5863072 C31.0808385,49.8971319 32.5000511,51.777467 34.7783948,51.8120681 L53.4465205,51.8120681 C51.1667396,51.777467 49.7495951,49.8971319 50.2705077,47.5863072" id="path20" fill="#024381"/><path d="M31.603674,47.5863072 L39.5112862,12.3256064 C40.0319972,10.0190783 42.9294064,8.14936888 45.2322457,8.10189474 L29.8919288,8.09784164 C27.5762247,8.09784164 24.6072257,9.98897554 24.078015,12.3256064 L16.1703903,47.5863072 C16.1222684,47.8015008 16.095571,48.0123833 16.0796427,48.21875 L16.0796427,48.8729033 C16.2344408,50.5573808 17.5106308,51.7840255 19.3450946,51.8120684 L34.778395,51.8120684 C32.5000514,51.7774672 31.0808388,49.8971321 31.603674,47.5863074" id="path16" fill="#DD0228"/><path d="M45.5555908,33.7951443 L45.8459112,33.7951443 C46.112686,33.7951443 46.2921624,33.7049151 46.3762988,33.5262522 L47.1306743,32.3881581 L49.1508594,32.3881581 L48.7295948,33.1367084 L51.151807,33.1367084 L50.8445448,34.2836311 L47.9622948,34.2836311 C47.6303371,34.7870546 47.2217059,35.0237289 46.7303719,34.9956792 L45.2290871,34.9956792 L45.5555903,33.7951443 L45.5555908,33.7951443 Z M45.2239185,35.4389498 L50.5306748,35.4389498 L50.1923968,36.6848156 L48.0582092,36.6848156 L47.7325683,37.887377 L49.8093234,37.887377 L49.4710455,39.1331245 L47.3942903,39.1331245 L46.9118565,40.9101191 C46.7923961,41.2071476 46.9494764,41.3407112 47.3805072,41.3104033 L49.0730394,41.3104033 L48.7594572,42.4680649 L45.5099327,42.4680649 C44.8939678,42.4680649 44.6826745,42.1128802 44.8758781,41.4008639 L45.4927002,39.1331245 L44.1652079,39.1331245 L44.5024235,37.887377 L45.8301157,37.887377 L46.1554727,36.6848156 L44.8865031,36.6848156 L45.2239187,35.4389498 L45.2239185,35.4389498 Z M53.6940543,32.3796754 L53.6104892,33.1090046 C53.6104892,33.1090046 54.611536,32.351394 55.5206923,32.351394 L58.8802022,32.351394 L57.595439,37.0395355 C57.4888995,37.5754964 57.032027,37.8420158 56.2250984,37.8420158 L52.4173288,37.8420158 L51.5254049,41.1339946 C51.4740018,41.3103996 51.5466547,41.4008601 51.7387644,41.4008601 L52.4879695,41.4008601 L52.2125819,42.4227036 L50.3078365,42.4227036 C49.5767227,42.4227036 49.2726155,42.2010824 49.3932257,41.7559001 L51.913645,32.3796754 L53.6940504,32.3796754 L53.6940538,32.3796754 L53.6940543,32.3796754 Z M56.5389682,33.7049151 L53.5404198,33.7049151 L53.1817545,34.9699156 C53.1817545,34.9699156 53.6811299,34.6064816 54.5156248,34.5934831 C55.3478203,34.5803416 56.2977513,34.5934831 56.2977513,34.5934831 L56.5389682,33.7049151 L56.5389682,33.7049151 Z M55.4526349,36.6394546 C55.6743232,36.6697625 55.7983759,36.5813285 55.8133087,36.3726173 L55.9968058,35.7057871 L52.9936651,35.7057871 L52.7418234,36.6394546 L55.4526349,36.6394546 L55.4526349,36.6394546 Z M53.4269919,38.1541261 L55.1580063,38.1541261 L55.1258444,38.909217 L55.5867376,38.909217 C55.8196256,38.909217 55.9350655,38.834043 55.9350655,38.6856878 L56.0714675,38.1972009 L57.5101493,38.1972009 L57.3180394,38.909217 C57.1555047,39.503101 56.7247614,39.8129247 56.0246599,39.8432326 L55.1025826,39.8432326 L55.0982745,41.1339948 C55.0813329,41.3407077 55.2668385,41.4460766 55.6487655,41.4460766 L56.5154225,41.4460766 L56.2357234,42.4680651 L54.1569595,42.4680651 C53.5743063,42.4959984 53.2885813,42.2161361 53.2946106,41.6224819 L53.4269919,38.1541263 L53.4269919,38.1541261 Z" id="path24" fill="#FFF"/><path d="M32.4510319,26.1337313 C32.2162474,27.2934211 31.6719906,28.1841323 30.8277611,28.8166598 C29.9912006,29.4384787 28.9121885,29.7503292 27.5911566,29.7503292 C26.3479455,29.7503292 25.436522,29.4319081 24.854903,28.792923 C24.4515263,28.3389136 24.2508581,27.762339 24.2508581,27.0652294 C24.2508581,26.7769995 24.2850874,26.4671759 24.3534033,26.1337316 L25.7609291,19.2920773 L27.8867326,19.2920773 L26.4983613,26.0562675 C26.4556313,26.2434995 26.4385741,26.4177634 26.440814,26.5748307 C26.4385741,26.9213015 26.5239182,27.2052187 26.6967903,27.4267232 C26.9486313,27.7559995 27.3573781,27.9194079 27.9261885,27.9194079 C28.5802869,27.9194079 29.1192611,27.7581708 29.5375707,27.4331789 C29.9559662,27.1104735 30.2291146,26.6522943 30.3518186,26.0562673 L31.744556,19.2920771 L33.8595901,19.2920771 L32.4510319,26.1337313" id="path28" fill="#FFF"/><path d="M41.3787307,23.4421754 L43.0436106,23.4421754 L41.7394923,29.5481603 L40.0778866,29.5481603 L41.3787307,23.4421754 M41.9028017,21.2176565 L43.5824989,21.2176565 L43.2687464,22.6997629 L41.5891632,22.6997629 L41.9028017,21.2176565" id="path34" fill="#FFF"/><path d="M44.517327,29.0834105 C44.0818743,28.663905 43.8620227,28.0980711 43.8598984,27.3794823 C43.8598984,27.2567739 43.867307,27.117016 43.8834459,26.9641447 C43.8994972,26.8092187 43.9198004,26.6586055 43.9485167,26.5188476 C44.1459406,25.5270522 44.5664605,24.7395969 45.2141545,24.158623 C45.8608441,23.5755943 46.6410651,23.2829651 47.5545261,23.2829651 C48.3025849,23.2829651 48.8958594,23.4938476 49.330336,23.9155244 C49.764525,24.3394292 49.9821962,24.9116026 49.9821962,25.6390217 C49.9821962,25.7636098 49.9727175,25.9077974 49.9566383,26.062695 C49.9373973,26.2197625 49.9141387,26.3703756 49.8871439,26.5188474 C49.6941718,27.4955897 49.2749158,28.2744759 48.6270761,28.8447112 C47.9792401,29.4191426 47.2013153,29.7050844 46.2941709,29.7050844 C45.5429572,29.7050844 44.9516878,29.4986313 44.517327,29.0834103 M47.6900657,27.8742783 C47.9835482,27.5537158 48.1937493,27.0673704 48.3218225,26.4199043 C48.3410635,26.3188199 48.3580051,26.2133364 48.3686301,26.1079392 C48.3792549,26.0045969 48.383563,25.9077971 48.383563,25.8195945 C48.383563,25.4430474 48.2885142,25.1505328 48.0975507,24.9439366 C47.9077369,24.7351971 47.6378038,24.6320581 47.2889011,24.6320581 C46.8277205,24.6320581 46.4521101,24.79535 46.1577689,25.1224831 C45.8608441,25.449618 45.650643,25.9444158 45.5182583,26.6027653 C45.5001669,26.7038498 45.4852374,26.8050488 45.4714506,26.9039919 C45.4608259,27.0050763 45.4576673,27.0997347 45.4596795,27.1857658 C45.4596795,27.5601717 45.5547284,27.8485163 45.7456919,28.0528263 C45.9355056,28.2572813 46.2042889,28.3583656 46.5577874,28.3583656 C47.0209802,28.3583656 47.3965869,28.197012 47.6900657,27.874278" id="path36" fill="#FFF"/><path d="M60.784089,33.8468445 L61.1855412,32.4226335 L63.215205,32.4226335 L63.1276192,32.945278 C63.1276192,32.945278 64.1648487,32.4226335 64.9117579,32.4226335 L67.4215559,32.4226335 L67.0226872,33.8468445 L66.6278392,33.8468445 L64.7345775,40.5638778 L65.1294254,40.5638778 L64.7538185,41.8978313 L64.3589705,41.8978313 L64.1947147,42.4765455 L62.2290876,42.4765455 L62.3930595,41.8978313 L58.5152205,41.8978313 L58.8931268,40.5638778 L59.2816582,40.5638778 L61.176641,33.8468445 L60.7840892,33.8468445 L60.784089,33.8468445 Z M62.9739881,33.8468445 L62.4573836,35.6647388 C62.4573836,35.6647388 63.3412696,35.3228122 64.1031081,35.2260122 C64.2713881,34.5911967 64.4913518,33.8468443 64.4913518,33.8468443 L62.9739879,33.8468443 L62.9739881,33.8468445 Z M62.2181789,36.5168912 L61.6998498,38.4209634 C61.6998498,38.4209634 62.6793595,37.9347344 63.351607,37.8938012 C63.5457289,37.1579031 63.7401384,36.5168914 63.7401384,36.5168914 L62.2181789,36.5168914 L62.2181789,36.5168912 Z M62.598094,40.5638778 L62.9866216,39.182655 L61.4715573,39.182655 L61.081014,40.5638778 L62.598094,40.5638778 L62.598094,40.5638778 Z M67.5071298,32.3344594 L69.4153209,32.3344594 L69.4963027,33.0442211 C69.4836658,33.2249108 69.5902052,33.3112015 69.8164892,33.3112015 L70.1536174,33.3112015 L69.8124685,34.5137629 L68.4099694,34.5137629 C67.8744113,34.5416962 67.5990203,34.3353313 67.5734658,33.8898026 L67.5071298,32.3344594 L67.5071298,32.3344594 Z M66.9480259,34.9140474 L73.1289041,34.9140474 L72.7662181,36.2050127 L70.7982948,36.2050127 L70.4608793,37.4053144 L72.4267938,37.4053144 L72.0618084,38.6941684 L69.8721969,38.6941684 L69.3768421,39.4495208 L70.4485334,39.4495208 L70.6960669,40.9619041 C70.7256419,41.1125173 70.8580269,41.1856668 71.0843106,41.1856668 L71.4171307,41.1856668 L71.0673656,42.4311845 L69.889142,42.4311845 C69.278635,42.4614924 68.963044,42.2549242 68.9371987,41.8096289 L68.6531949,40.4284027 L67.6779933,41.8978316 C67.4474012,42.3130241 67.0930405,42.5067404 66.6152059,42.4765457 L64.8158469,42.4765457 L65.165896,41.2306816 L65.7272994,41.2306816 C65.9578915,41.2306816 66.1497138,41.1274259 66.3225861,40.9188012 L67.8488536,38.6941684 L65.8809304,38.6941684 L66.2456284,37.4053144 L68.3801036,37.4053144 L68.7195277,36.2050127 L66.583044,36.2050127 L66.9480259,34.9140474 L66.9480259,34.9140474 Z" id="path26" fill="#FFF"/><path d="M34.4092189,23.440034 L35.9106456,23.440034 L35.7389231,24.3221177 L35.9544105,24.0704201 C36.4411209,23.5455177 37.032273,23.2851079 37.7302204,23.2851079 C38.3619771,23.2851079 38.8176176,23.4702268 39.1036596,23.8423447 C39.3853077,24.2146074 39.462153,24.7288579 39.3289093,25.3893505 L38.5017389,29.5503033 L36.9586735,29.5503033 L37.7056386,25.7787796 C37.7825997,25.3893507 37.761292,25.0988627 37.6426081,24.9116024 C37.5253876,24.7244586 37.301142,24.6320581 36.977855,24.6320581 C36.5808828,24.6320581 36.2468272,24.7566763 35.9747119,25.004206 C35.7014486,25.2537603 35.5211976,25.6002313 35.4325794,26.0412158 L34.7442788,29.5503033 L33.1979972,29.5503033 L34.4092189,23.440034" id="path30" fill="#FFF"/><path d="M51.6276367,23.440034 L53.1303552,23.440034 L52.9597825,24.3221177 L53.1728579,24.0704201 C53.6598838,23.5455177 54.2531618,23.2851079 54.9489552,23.2851079 C55.580712,23.2851079 56.0373005,23.4702268 56.3210133,23.8423447 C56.6009964,24.2146074 56.6819782,24.7288579 56.5452885,25.3893505 L55.7214185,29.5503033 L54.1762007,29.5503033 L54.9233971,25.7787796 C55.0000671,25.3893507 54.9788173,25.0988627 54.8613692,24.9116024 C54.7396126,24.7244586 54.5196455,24.6320581 54.1977379,24.6320581 C53.8005937,24.6320581 53.4677705,24.7566763 53.1923829,25.004206 C52.9190041,25.2537603 52.7378064,25.6002313 52.6525167,26.0412158 L51.9610313,29.5503033 L50.4166723,29.5503033 L51.6276363,23.440034" id="path32" fill="#FFF"/><path d="M59.0553707,19.6533396 L63.4179394,19.6533396 C64.2567389,19.6533396 64.9054374,19.8449709 65.3514011,20.2212867 C65.7953527,20.602235 66.0176159,21.1487615 66.0176159,21.860867 L66.0176159,21.8822879 C66.0176159,22.0177622 66.0087158,22.1706025 65.9960788,22.3361842 C65.9745416,22.499735 65.9466878,22.6653139 65.9107925,22.837551 C65.7186827,23.7799324 65.2724315,24.5373113 64.5832423,25.1117429 C63.8914696,25.6840046 63.0721953,25.9723493 62.1288682,25.9723493 L59.7893554,25.9723493 L59.0659955,29.5503017 L57.0403524,29.5503017 L59.0553705,19.6533398 M60.1457243,24.2512249 L62.0860811,24.2512249 C62.5917732,24.2512249 62.992938,24.1327146 63.2855544,23.8983283 C63.5758784,23.6616539 63.7679883,23.3002747 63.8745243,22.8097629 C63.8914694,22.7191574 63.9020941,22.6375256 63.9150151,22.5622615 C63.9216193,22.4913409 63.9299479,22.4201307 63.9299479,22.3515238 C63.9299479,22.0006819 63.8064668,21.7468156 63.5586457,21.587605 C63.3111121,21.4260764 62.9228716,21.3487892 62.3847265,21.3487892 L60.7369898,21.3487892 L60.1457238,24.2512249" id="path38" fill="#FFF"/><path d="M75.0839023,30.7315871 C74.4435293,32.1041259 73.8333097,32.9043483 73.4749317,33.2765827 C73.115979,33.6446476 72.4055401,34.5009696 70.6937669,34.4363009 L70.8410813,33.3886373 C72.2814876,32.9411103 73.0605588,30.9249555 73.5045104,30.0322196 L72.9752689,23.4572287 L74.0894595,23.4421772 L75.0241702,23.4421772 L75.124677,27.5666261 L76.8766536,23.4421772 L78.6504547,23.4421772 L75.083902,30.7315871" id="path40" fill="#FFF"/><path d="M70.1240383,23.9391447 L69.4193412,24.4276316 C68.683057,23.8467744 68.0108094,23.4874215 66.7134126,24.0940708 C64.9459281,24.9201998 63.469055,31.2564897 68.3353041,29.1694717 L68.6127036,29.5007746 L70.5272115,29.5503036 L71.7844083,23.7928163 L70.1240383,23.939145 M69.0354056,27.0868232 C68.7278561,28.0012713 68.0409628,28.6057792 67.5031088,28.4336868 C66.9652545,28.2658789 66.7731414,27.3836505 67.0847115,26.4671756 C67.391977,25.5505878 68.0834624,24.9482215 68.6170083,25.1203421 C69.154866,25.28815 69.3489879,26.1702337 69.0354056,27.0868232" id="path42" fill="#FFF"/></g></g></svg>

<svg width="100" height="60" xmlns="http://www.w3.org/2000/svg"><g fill="none" fill-rule="evenodd"><rect fill="#FFF" width="100" height="60" rx="4"/><path d="M80.612 8.11l-16.716-.004h-.005c-.012 0-.025.003-.038.003-2.296.07-5.156 1.927-5.677 4.217l-7.905 35.26c-.521 2.311.896 4.191 3.176 4.226h17.56c2.246-.112 4.427-1.947 4.94-4.21l7.905-35.262c.53-2.334-.922-4.23-3.24-4.23" fill="#01798A"/><path d="M50.27 47.586l7.906-35.26c.52-2.29 3.38-4.147 5.677-4.217l-6.646-.005-11.975-.002c-2.303.047-5.2 1.917-5.72 4.224l-7.908 35.26c-.523 2.311.896 4.191 3.174 4.226h18.669c-2.28-.035-3.697-1.915-3.176-4.226" fill="#024381"/><path d="M31.604 47.586l7.907-35.26c.521-2.307 3.418-4.177 5.721-4.224l-15.34-.004c-2.316 0-5.285 1.891-5.814 4.228l-7.908 35.26a4.45 4.45 0 00-.09.633v.654c.154 1.684 1.43 2.911 3.265 2.94h15.433c-2.278-.036-3.697-1.916-3.174-4.227" fill="#DD0228"/><path d="M45.556 33.795h.29c.267 0 .446-.09.53-.269l.755-1.138h2.02l-.421.749h2.422l-.307 1.147h-2.883c-.332.503-.74.74-1.232.712h-1.5l.326-1.2zm-.332 1.644h5.307l-.339 1.246h-2.134l-.325 1.202h2.076l-.338 1.246h-2.077l-.482 1.777c-.12.297.037.43.469.4h1.692l-.314 1.158h-3.25c-.615 0-.826-.355-.633-1.067l.617-2.268h-1.328l.337-1.246h1.328l.325-1.202h-1.268l.337-1.246zm8.47-3.06l-.084.73s1.002-.758 1.91-.758h3.36l-1.285 4.689c-.106.535-.563.802-1.37.802h-3.808l-.892 3.292c-.051.176.022.267.214.267h.749l-.275 1.022h-1.905c-.731 0-1.035-.222-.915-.667l2.52-9.376h1.781zm2.845 1.326H53.54l-.358 1.265s.5-.364 1.334-.377c.832-.013 1.782 0 1.782 0l.241-.888zm-1.086 2.934c.221.03.345-.058.36-.266l.184-.667h-3.003l-.252.933h2.71zm-2.026 1.515h1.731l-.032.755h.46c.234 0 .35-.075.35-.223l.135-.489h1.44l-.193.712c-.162.594-.593.904-1.293.934h-.922l-.005 1.291c-.017.207.169.312.55.312h.867l-.28 1.022h-2.078c-.583.028-.868-.252-.862-.846l.132-3.468zm-20.976-12.02c-.235 1.16-.779 2.05-1.623 2.683-.837.621-1.916.933-3.237.933-1.243 0-2.154-.318-2.736-.957-.403-.454-.604-1.03-.604-1.728 0-.288.034-.598.102-.931l1.408-6.842h2.126l-1.389 6.764c-.042.187-.06.362-.057.519-.002.346.083.63.256.852.252.329.66.492 1.23.492.653 0 1.192-.16 1.61-.486.419-.323.692-.78.815-1.377l1.393-6.764h2.115l-1.409 6.842m8.928-2.692h1.665l-1.305 6.106h-1.661l1.3-6.106m.525-2.224h1.68l-.314 1.482h-1.68l.314-1.482m2.614 7.865c-.435-.42-.655-.985-.657-1.704a4.585 4.585 0 01.089-.86c.197-.992.617-1.78 1.265-2.36.647-.583 1.427-.876 2.34-.876.749 0 1.342.21 1.776.633.435.423.652.996.652 1.723a4.542 4.542 0 01-.095.88c-.193.977-.612 1.755-1.26 2.326-.648.574-1.426.86-2.333.86-.751 0-1.342-.206-1.777-.622m3.173-1.209c.294-.32.504-.807.632-1.454a3.008 3.008 0 00.062-.6c0-.377-.095-.67-.286-.876-.19-.209-.46-.312-.81-.312-.46 0-.836.163-1.13.49-.297.328-.507.822-.64 1.48a7.893 7.893 0 00-.047.302c-.01.101-.013.196-.011.282 0 .374.095.663.286.867.19.204.458.305.812.305.463 0 .839-.161 1.132-.484m13.094 5.973l.402-1.424h2.03l-.088.522s1.037-.522 1.784-.522h2.51l-.4 1.424h-.394l-1.893 6.717h.394l-.375 1.334h-.395l-.164.579h-1.966l.164-.58h-3.878l.378-1.333h.389l1.895-6.717h-.393zm2.19 0l-.517 1.818s.884-.342 1.646-.439c.168-.635.388-1.38.388-1.38h-1.517zm-.756 2.67L61.7 38.42s.98-.486 1.652-.527c.194-.736.388-1.377.388-1.377h-1.522zm.38 4.047l.389-1.381h-1.515l-.391 1.38h1.517zm4.91-8.23h1.907l.081.71c-.012.18.094.267.32.267h.338l-.342 1.203H68.41c-.536.028-.811-.179-.837-.624l-.066-1.556zm-.56 2.58h6.18l-.362 1.291h-1.968l-.337 1.2h1.966l-.365 1.29h-2.19l-.495.755h1.072l.247 1.512c.03.15.162.224.388.224h.333l-.35 1.245H69.89c-.61.03-.926-.176-.952-.621l-.284-1.382-.975 1.47c-.23.415-.585.609-1.063.579h-1.8l.35-1.246h.562c.23 0 .423-.104.596-.312l1.526-2.225h-1.97l.365-1.289h2.134l.34-1.2h-2.137l.365-1.291zM34.41 23.44h1.5l-.171.882.215-.252c.487-.524 1.078-.785 1.776-.785.632 0 1.088.185 1.374.557.281.373.358.887.225 1.547l-.827 4.161h-1.543l.747-3.771c.077-.39.055-.68-.063-.867-.118-.188-.342-.28-.665-.28-.397 0-.731.125-1.003.372-.274.25-.454.596-.542 1.037l-.689 3.51h-1.546l1.211-6.111m17.219 0h1.502l-.17.882.213-.252c.487-.524 1.08-.785 1.776-.785.632 0 1.088.185 1.372.557.28.373.361.887.224 1.547l-.824 4.161h-1.545l.747-3.771c.077-.39.056-.68-.062-.867-.121-.188-.341-.28-.663-.28-.397 0-.73.125-1.006.372-.273.25-.454.596-.54 1.037l-.691 3.51h-1.544l1.21-6.111m7.428-3.787h4.363c.839 0 1.487.192 1.933.568.444.381.667.928.667 1.64v.021c0 .136-.01.289-.022.454a6.79 6.79 0 01-.085.502c-.192.942-.639 1.7-1.328 2.274-.692.572-1.51.86-2.454.86h-2.34l-.723 3.578H57.04l2.015-9.897m1.09 4.598h1.941c.506 0 .907-.118 1.2-.353.29-.236.482-.598.589-1.088.016-.09.027-.172.04-.248.007-.07.015-.142.015-.21 0-.351-.124-.605-.371-.764-.248-.162-.636-.24-1.174-.24h-1.648l-.591 2.903m14.938 6.481c-.64 1.372-1.25 2.172-1.61 2.545-.358.368-1.068 1.224-2.78 1.16l.147-1.048c1.44-.448 2.22-2.464 2.664-3.357l-.53-6.575 1.114-.015h.935l.1 4.125 1.753-4.125h1.773l-3.566 7.29m-4.96-6.792l-.705.488c-.736-.581-1.408-.94-2.706-.334-1.767.826-3.244 7.162 1.622 5.075l.278.332 1.914.05 1.257-5.758-1.66.146m-1.089 3.148c-.307.914-.994 1.519-1.532 1.347-.538-.168-.73-1.05-.418-1.967.307-.916.998-1.519 1.532-1.347.538.168.732 1.05.418 1.967" fill="#FFF"/></g></svg>
